static/assets/img/decorations/deco-blob-12.svg

<svg fill="none" height="116" viewBox="0 0 93 116" width="93" xmlns="http://www.w3.org/2000/svg"><path d="m79.318 42.42c-1.047.303-1.9799-.23-2.8729.564.373.226.6019.446.8689.514 1.77.449 3.2031 1.373 4.3501 2.806 1.562 1.954 3.455 3.499 5.672 4.71 2.811 1.535 4.508 3.983 5.291 7.094.32 1.276.172 2.362-.812 3.293-2.961 2.797-5.568 5.965-8.828 8.452-.381.29-.7231.632-1.0621.97-3.309 3.281-6.9549 6.123-10.9589 8.507-.547.325-1.0371.743-1.5491 1.124-.514.382-.996.807-1.531 1.154-5.096 3.307-10.195 6.607-15.301 9.897-1.879 1.211-3.7709 2.401-5.6739 3.575-.68.419-1.3871.805-2.1151 1.127-4.111 1.818-7.9259 4.123-11.5799 6.736-2.34 1.672-4.811 3.162-7.25 4.688-2.777 1.736-5.5271 3.529-8.3981 5.097-2.756 1.506-5.7229 2.448-8.94694 2.278-2.141-.113-3.816-1.018-5.09-2.736-1.686-2.271-2.37101-4.875-2.46701-7.639-.084-2.477-.00199-4.959-.05099-7.438-.023005-1.194-.188015-2.386-.273015-3.579-.068-.956-.130999-1.913-.167999-2.87-.131-3.268-.21498-6.539-.38498-9.806-.1089994-2.081-.1250045-4.14.175995-6.218.215-1.493.204979-3.03.177979-4.546-.098-5.214.63302-10.355 1.26202-15.509.291-2.377.453-4.769.68-7.153.234-2.464.42001-4.935.73001-7.389.213-1.68.25598-3.336.05298-5.017-.271-2.216-.50598-4.438-.69098-6.664-.072-.87.00999-1.756.05899-2.632.088-1.513.25799-3.023.29699-4.538.064-2.556-.09998-5.121.42402-7.651.047-.233.06198-.48.04498-.717-.236-3.22601.77302-6.15699 2.16202-8.98499.348-.707.81397-1.36902 1.31097-1.98502.576-.715 1.36902-1.103998 2.30902-1.094998 3.19704.031 6.40604-.094004 9.58604.158996 3.209.256002 6.2049 1.508012 9.1659 2.721012 1.477.605 2.9101 1.32799 4.3201 2.07699 2.486 1.32 4.5199 3.28 6.7579 4.95201 1.148.859 2.2031 1.847 3.3241 2.746 3.506 2.812 6.514 6.143 9.703 9.283 2.291 2.254 4.781 4.211 7.518 5.914 4.545 2.829 8.9729 5.851 13.5059 8.701 2.041 1.284 4.0201 2.612 5.7051 4.346.154.166.2869.356.5499.682zm-69.59694-40.60799c-.174.157-.32001.28899-.46701.42099.104.099.23601.29701.30301.27701.182-.057.336-.20501.50004-.31601-.09404-.107-.18804-.21399-.33604-.38199zm16.42704 75.16699c-.01-.076-.0201-.152-.0291-.229-.107.034-.2149.068-.3199.104.047.062.0819.152.1429.177.054.021.1361-.033.2061-.052zm.7639 12.482-.0289.186.1719-.061zm-13.2399-58.632.1499-.032-.0919-.131z" fill="#000"/></svg>

<svg width="93" height="116" viewBox="0 0 93 116" fill="none" xmlns="http://www.w3.org/2000/svg">
<path d="M79.318 42.42C78.271 42.723 77.3381 42.19 76.4451 42.984C76.8181 43.21 77.047 43.43 77.314 43.498C79.084 43.947 80.5171 44.871 81.6641 46.304C83.2261 48.258 85.1191 49.803 87.3361 51.014C90.1471 52.549 91.8441 54.997 92.6271 58.108C92.9471 59.384 92.7991 60.47 91.8151 61.401C88.8541 64.198 86.2471 67.366 82.9871 69.853C82.6061 70.143 82.264 70.485 81.925 70.823C78.616 74.104 74.9701 76.946 70.9661 79.33C70.4191 79.655 69.929 80.073 69.417 80.454C68.903 80.836 68.421 81.261 67.886 81.608C62.79 84.915 57.691 88.215 52.585 91.505C50.706 92.716 48.8141 93.906 46.9111 95.08C46.2311 95.499 45.524 95.885 44.796 96.207C40.685 98.025 36.8701 100.33 33.2161 102.943C30.8761 104.615 28.4051 106.105 25.9661 107.631C23.1891 109.367 20.439 111.16 17.568 112.728C14.812 114.234 11.8451 115.176 8.62106 115.006C6.48006 114.893 4.80506 113.988 3.53106 112.27C1.84506 109.999 1.16005 107.395 1.06405 104.631C0.98005 102.154 1.06206 99.672 1.01306 97.193C0.990055 95.999 0.825045 94.807 0.740045 93.614C0.672045 92.658 0.609046 91.701 0.572046 90.744C0.441046 87.476 0.357066 84.205 0.187066 80.938C0.0780666 78.857 0.0620615 76.798 0.363061 74.72C0.578061 73.227 0.56804 71.69 0.54104 70.174C0.44304 64.96 1.17406 59.819 1.80306 54.665C2.09406 52.288 2.25606 49.896 2.48306 47.512C2.71706 45.048 2.90307 42.577 3.21307 40.123C3.42607 38.443 3.46905 36.787 3.26605 35.106C2.99505 32.89 2.76007 30.668 2.57507 28.442C2.50307 27.572 2.58506 26.686 2.63406 25.81C2.72206 24.297 2.89205 22.787 2.93105 21.272C2.99505 18.716 2.83107 16.151 3.35507 13.621C3.40207 13.388 3.41705 13.141 3.40005 12.904C3.16405 9.67799 4.17307 6.74701 5.56207 3.91901C5.91007 3.21201 6.37604 2.54999 6.87304 1.93399C7.44904 1.21899 8.24206 0.829992 9.18206 0.838992C12.3791 0.869992 15.5881 0.744988 18.7681 0.997988C21.9771 1.25399 24.973 2.506 27.934 3.719C29.411 4.324 30.8441 5.04699 32.2541 5.79599C34.7401 7.11599 36.774 9.07599 39.012 10.748C40.16 11.607 41.2151 12.595 42.3361 13.494C45.8421 16.306 48.8501 19.637 52.0391 22.777C54.3301 25.031 56.8201 26.988 59.5571 28.691C64.1021 31.52 68.53 34.542 73.063 37.392C75.104 38.676 77.0831 40.004 78.7681 41.738C78.9221 41.904 79.055 42.094 79.318 42.42ZM9.72106 1.81201C9.54706 1.96901 9.40105 2.101 9.25405 2.233C9.35805 2.332 9.49006 2.53001 9.55706 2.51001C9.73906 2.45301 9.89306 2.305 10.0571 2.194C9.96306 2.087 9.86906 1.98001 9.72106 1.81201ZM26.1481 76.979C26.1381 76.903 26.128 76.827 26.119 76.75C26.012 76.784 25.9041 76.818 25.7991 76.854C25.8461 76.916 25.881 77.006 25.942 77.031C25.996 77.052 26.0781 76.998 26.1481 76.979ZM26.912 89.461L26.8831 89.647L27.055 89.586L26.912 89.461ZM13.6721 30.829L13.822 30.797L13.7301 30.666L13.6721 30.829Z" fill="black"/>
</svg>
